X: 1
T:Naomi's Fancy
M:4/4
L:1/8
Q:95
C:Craig Sexton
S:Play C whistle
R:hornpipe
N:Transposed from DDor for ease in playing on C whistle
Z:Mistakes by Phil Sexton
K:Edor
~B3A G2EG|Beed efgf|edBA G2EG|F2DF G~E3|!
~B3A G2EG|Beed e2ef|gefd eBdA|BGAF G~E3:|!
~g3f e2ef|edBA Beef|~g3f e2ef|edBA GEEf|!
g2ge a2ae|g2gf edB2|GABe dBcA|1BGAF GEEB:|2BGAF G~E3||
